X:114
T: Hoer an, mein liebes Kind, was ich muss leiden,
N: D0171
O: Europa, Mitteleuropa, Deutschland, Untermainfranken, Spessart
N: Rhythmische Korrekturen (Pausen weggelassen) ; Inzipit = Variante
R: Liebes - Lied
M: 3/4
L: 1/8
K: D
DF | A2d2AA | F4z2 |
B2A3E | G2F2
DF | A2d2AA | F4z2 |
B2A3E | G2F2
EE | E2E3E | EFGBA2 |
A2B2dB | BAA2
DF | A2d2AA | AGF2z2 |
B2A3E | G2F2
EE | E2E3E | EFGBA2 |
A2B2dB | BAA2
DF | A2d2AA | AGF2z2 |
B2A3E | G2F2

@@@ Tune index: 2636
